epam-assets/icon-sources/18/internal-logo/digital_platform.svg

<svg width="18" height="18" viewBox="0 0 18 18" fill="none" xmlns="http://www.w3.org/2000/svg">
<g id="18/internal-logo/digital_platform">
<path id="icon" fill-rule="evenodd" clip-rule="evenodd" d="M10.0323 1.5L15 4.97329V5.88462L10.0375 9.35703L10.0323 7.70744L13.3715 5.42916L10.0323 3.15263V1.5ZM3 4.96934L7.95704 1.50349V3.1562L4.62289 5.42904L7.95704 7.70373V9.35692L3 5.88835V4.96934ZM8.99453 13.2745L3 9.13764V7.49149L8.99469 11.6276L15 7.49189V9.13684L8.99453 13.2745ZM3 12.3588L8.99453 16.5L15 12.3538V10.7072L8.99469 14.8531L3 10.7118V12.3588Z" fill="#6C6F80"/>
</g>
</svg>

<svg xmlns="http://www.w3.org/2000/svg" width="18" height="18" fill="none" viewBox="0 0 18 18">
  <path fill="#6C6F80" fill-rule="evenodd" d="M10.032 1.5 15 4.973v.912l-4.963 3.472-.005-1.65 3.34-2.278-3.34-2.276V1.5ZM3 4.97l4.957-3.467v1.653L4.623 5.43l3.334 2.275v1.653L3 5.888V4.97Zm5.995 8.305L3 9.137V7.49l5.995 4.137L15 7.492v1.645l-6.005 4.137ZM3 12.358 8.995 16.5 15 12.354v-1.647l-6.005 4.146L3 10.712v1.647Z" clip-rule="evenodd"/>
</svg>
